!!!OTL: Der Hammerschmiedssohn
!!!OTL-incipit:Erstanden ist der Herre Christ,
!!!ARE: Europa, Mitteleuropa, Deutschland
!!!YOR: 4, S. 358
!!    1559 gedruckt
!!!SCT: Q1088D
!!!TXL: @@DE
!!!YEM: Copyright 1995, estate of Helmut Schaffrath.
**kern	**text
*ICvox	*
*M6/4	*
*k[]	*
*C:	*
!LO:TX:a:t=Triller 1559	!
{4cc	Er-
=1	=1
2cc	-ſan-
4cc	-den
2b	iſt
4b	der
=2	=2
4cc	Her-
2a	-re
2g}	Chriſt,
{4g	Al-
=3	=3
2a	-le-
4cc	-lu-
2b	-ia,
4a	Al-
=4	=4
2g	-le-
4f	-lu-
2e}	-ia,
{4e	der
=5	=5
2e	al-
4e	-ler
2g	welt
4f	ein
=6	=6
4e	trö-
2d	-ſter
2c}	iſt.
{4c	Al-
=7	=7
(4g	-le-
4a)	.
4g	-lu-
2g	-ia,
4g	Al-
=8	=8
4f	-le-
2d	-lu-
2c;}	-ia.
==	==
!!!AGN: geistlich, Triller
!! Melodievergleich zu Q0088, anderes Lied.
!!!ONB: ESAC (Essen Associative Code) Database: BALLADE
!!!AMT: compound duple
!!!AIN: vox
!!!EED: Helmut Schaffrath
!!!EEV: 1.0
!!!source: Deutsche Volkslieder mit ihren Melodien. Herausgegeben vom Deutschen Volksliedarchiv. Vierter Band. Berlin 1959.
!!!page: 358
!!!ENC: Anna Maria Matuszewska
!!!EEV: 2025/02/27
*-	*-
